groups/nitrogen/oxime.svg

<?xml version='1.0' encoding='iso-8859-1'?>
<svg version='1.1' baseProfile='full'
              xmlns='http://www.w3.org/2000/svg'
                      xmlns:rdkit='http://www.rdkit.org/xml'
                      xmlns:xlink='http://www.w3.org/1999/xlink'
                  xml:space='preserve'
width='256px' height='256px' viewBox='0 0 256 256'>
<!-- END OF HEADER -->
<rect style='opacity:1.0;fill:#FFFFFF;stroke:none' width='256.0' height='256.0' x='0.0' y='0.0'> </rect>
<path class='bond-0 atom-0 atom-1' d='M 145.0,69.1 L 145.0,126.7' style='fill:none;fill-rule:evenodd;stroke:#000000;stroke-width:2.0px;stroke-linecap:butt;stroke-linejoin:miter;stroke-opacity:1' />
<path class='bond-1 atom-1 atom-2' d='M 145.0,126.7 L 107.5,148.4' style='fill:none;fill-rule:evenodd;stroke:#000000;stroke-width:2.0px;stroke-linecap:butt;stroke-linejoin:miter;stroke-opacity:1' />
<path class='bond-1 atom-1 atom-2' d='M 136.4,121.7 L 103.1,140.9' style='fill:none;fill-rule:evenodd;stroke:#000000;stroke-width:2.0px;stroke-linecap:butt;stroke-linejoin:miter;stroke-opacity:1' />
<path class='bond-2 atom-2 atom-3' d='M 82.9,148.4 L 57.6,133.8' style='fill:none;fill-rule:evenodd;stroke:#000000;stroke-width:2.0px;stroke-linecap:butt;stroke-linejoin:miter;stroke-opacity:1' />
<path class='bond-3 atom-1 atom-4' d='M 145.0,126.7 L 182.7,148.4' style='fill:none;fill-rule:evenodd;stroke:#000000;stroke-width:2.0px;stroke-linecap:butt;stroke-linejoin:miter;stroke-opacity:1' />
<path class='atom-1' d='M116.202,69.1132 C116.203,71.2728 119.083,71.2705 119.081,69.1109 C119.08,66.9513 121.959,66.949 121.961,69.1086 C121.963,71.2682 124.842,71.2659 124.841,69.1063 C124.839,66.9467 127.718,66.9444 127.72,69.104 C127.722,71.2636 130.602,71.2613 130.6,69.1017 C130.598,66.9421 133.478,66.9398 133.479,69.0994 C133.481,71.259 136.361,71.2567 136.359,69.0971 C136.357,66.9375 139.237,66.9352 139.239,69.0948 C139.24,71.2544 142.12,71.2521 142.118,69.0925 C142.117,66.9329 144.996,66.9306 144.998,69.0902 C145,71.2498 147.879,71.2475 147.878,69.0879 C147.876,66.9283 150.755,66.9259 150.757,69.0855 C150.759,71.2452 153.639,71.2428 153.637,69.0832 C153.635,66.9236 156.515,66.9213 156.516,69.0809 C156.518,71.2405 159.398,71.2382 159.396,69.0786 C159.394,66.919 162.274,66.9167 162.276,69.0763 C162.277,71.2359 165.157,71.2336 165.155,69.074 C165.154,66.9144 168.033,66.9121 168.035,69.0717 C168.037,71.2313 170.916,71.229 170.915,69.0694 C170.913,66.9098 173.793,66.9075 173.794,69.0671' style='fill:none;stroke:#7F7F7F;stroke-width:2.0px;stroke-linecap:butt;stroke-linejoin:miter;stroke-opacity:1' />
<text x='84.8' y='172.8' class='atom-2' style='font-size:34px;font-style:normal;font-weight:normal;fill-opacity:1;stroke:none;font-family:sans-serif;text-anchor:start;fill:#000000' >N</text>
<text x='12.8' y='144.0' class='atom-3' style='font-size:34px;font-style:normal;font-weight:normal;fill-opacity:1;stroke:none;font-family:sans-serif;text-anchor:start;fill:#000000' >H</text>
<text x='34.9' y='144.0' class='atom-3' style='font-size:34px;font-style:normal;font-weight:normal;fill-opacity:1;stroke:none;font-family:sans-serif;text-anchor:start;fill:#000000' >O</text>
<text x='184.6' y='172.7' class='atom-4' style='font-size:34px;font-style:normal;font-weight:normal;fill-opacity:1;stroke:none;font-family:sans-serif;text-anchor:start;fill:#000000' >C</text>
<text x='208.4' y='172.7' class='atom-4' style='font-size:34px;font-style:normal;font-weight:normal;fill-opacity:1;stroke:none;font-family:sans-serif;text-anchor:start;fill:#000000' >H</text>
<text x='232.3' y='186.5' class='atom-4' style='font-size:22px;font-style:normal;font-weight:normal;fill-opacity:1;stroke:none;font-family:sans-serif;text-anchor:start;fill:#000000' >3</text>
</svg>

<svg height="256" viewBox="0 0 256 256" width="256" xmlns="http://www.w3.org/2000/svg"><path d="m0 0h256v256h-256z" fill="#fff"/><g fill="none" stroke-width="2"><path d="m145 69.1v57.6" stroke="#000"/><path d="m145 126.7-37.5 21.7" stroke="#000"/><path d="m136.4 121.7-33.3 19.2" stroke="#000"/><path d="m82.9 148.4-25.3-14.6" stroke="#000"/><path d="m145 126.7 37.7 21.7" stroke="#000"/><path d="m116.202 69.113c.001 2.16 2.881 2.158 2.879-.002-.001-2.16 2.878-2.162 2.88-.002.002 2.159 2.881 2.157 2.88-.003-.002-2.159 2.877-2.162 2.879-.002s2.882 2.157 2.88-.002c-.002-2.16 2.878-2.162 2.879-.003.002 2.16 2.882 2.158 2.88-.002-.002-2.159 2.878-2.162 2.88-.002.001 2.159 2.881 2.157 2.879-.002-.001-2.16 2.878-2.162 2.88-.003.002 2.16 2.881 2.158 2.88-.002-.002-2.16 2.877-2.162 2.879-.002.002 2.159 2.882 2.157 2.88-.003-.002-2.159 2.878-2.162 2.879-.002.002 2.16 2.882 2.157 2.88-.002-.002-2.16 2.878-2.162 2.88-.003.001 2.16 2.881 2.158 2.879-.002-.001-2.16 2.878-2.162 2.88-.002.002 2.159 2.881 2.157 2.88-.003-.002-2.159 2.878-2.161 2.879-.002" stroke="#7f7f7f"/></g><text font-family="sans-serif" font-size="34" x="84.8" y="172.8">N</text><text font-family="sans-serif" font-size="34" x="12.8" y="144">H</text><text font-family="sans-serif" font-size="34" x="34.9" y="144">O</text><text font-family="sans-serif" font-size="34" x="184.6" y="172.7">C</text><text font-family="sans-serif" font-size="34" x="208.4" y="172.7">H</text><text font-family="sans-serif" font-size="22" x="232.3" y="186.5">3</text></svg>
